icons/fingerprint.svg

<svg width="48" height="48" viewBox="0 0 48 48" fill="none" xmlns="http://www.w3.org/2000/svg">
<path fill-rule="evenodd" clip-rule="evenodd" d="M24 6C22.0005 6 20.1179 6.48826 18.4622 7.3512C17.9724 7.60646 17.3685 7.41636 17.1132 6.92661C16.858 6.43685 17.0481 5.8329 17.5378 5.57764C19.4721 4.56948 21.671 4 24 4C27.0862 4 29.9418 4.99977 32.2567 6.69284C32.7025 7.01888 32.7996 7.64455 32.4735 8.09034C32.1475 8.53612 31.5218 8.63319 31.076 8.30716C29.0922 6.85623 26.6476 6 24 6ZM33.6318 9.21217C34.0669 8.87202 34.6954 8.949 35.0355 9.3841C36.1273 10.7807 36.9604 12.3908 37.4614 14.142C37.6133 14.673 37.306 15.2266 36.7751 15.3785C36.2441 15.5304 35.6905 15.2231 35.5386 14.6922C35.1098 13.1934 34.3964 11.8139 33.4599 10.6159C33.1197 10.1808 33.1967 9.55233 33.6318 9.21217ZM13.9579 9.68366C14.4087 10.0027 14.5156 10.6267 14.1967 11.0776C12.8129 13.0333 12 15.4202 12 18V30C12 30.5523 11.5523 31 11 31C10.4477 31 10 30.5523 10 30V18C10 14.9931 10.9491 12.2049 12.564 9.92242C12.883 9.47157 13.507 9.36468 13.9579 9.68366ZM37 17C37.5523 17 38 17.4477 38 18V30C38 32.1151 37.5303 34.1233 36.6885 35.9236C36.1778 37.0157 35.5305 38.0307 34.7689 38.9466C34.4157 39.3712 33.7852 39.4291 33.3606 39.076C32.936 38.7229 32.878 38.0924 33.2311 37.6677C33.8846 36.882 34.4394 36.0119 34.8768 35.0764C35.5971 33.5359 36 31.8164 36 30V18C36 17.4477 36.4477 17 37 17ZM12.9023 36.8473C13.3484 36.5218 13.974 36.6195 14.2996 37.0657C15.7333 39.0304 17.7486 40.5423 20.0898 41.3488C21.3141 41.7706 22.6292 42 24 42C24.5523 42 25 42.4477 25 43C25 43.5523 24.5523 44 24 44C22.4046 44 20.8695 43.7327 19.4384 43.2397C16.7038 42.2977 14.3546 40.5338 12.684 38.2446C12.3584 37.7985 12.4562 37.1729 12.9023 36.8473ZM31.7769 40.4661C32.0718 40.9331 31.9323 41.5507 31.4653 41.8455C30.1802 42.657 28.7532 43.2655 27.2299 43.6254C26.6924 43.7523 26.1537 43.4195 26.0268 42.882C25.8998 42.3445 26.2326 41.8059 26.7701 41.6789C28.074 41.3709 29.2959 40.85 30.3975 40.1545C30.8644 39.8596 31.482 39.9991 31.7769 40.4661Z" fill="black"/>
<path fill-rule="evenodd" clip-rule="evenodd" d="M14 18.2349C13.9998 12.7647 19.0142 9 24 9C28.9858 9 34.0002 12.7647 34 18.2349V28.5435C34 29.4221 33.8301 30.3568 33.3499 31.1056C32.8357 31.9076 31.9988 32.433 30.8906 32.433C29.8066 32.433 28.9259 31.9327 28.3417 31.1779C27.7734 30.4436 27.5 29.4951 27.5 28.5435V19.2371C27.5 18.2691 27.1251 17.3459 26.4657 16.6692C25.8072 15.9933 24.9197 15.6186 24 15.6186C23.0803 15.6186 22.1928 15.9933 21.5343 16.6692C20.8749 17.3459 20.5 18.2691 20.5 19.2371V30.8528C20.5 33.5236 21.8359 35.9927 24.8276 37.0579C25.3479 37.2432 25.6195 37.8152 25.4342 38.3354C25.249 38.8557 24.677 39.1273 24.1567 38.9421C20.2578 37.5537 18.5 34.2461 18.5 30.8528V19.2371C18.5 17.7552 19.0733 16.329 20.1018 15.2734C21.1311 14.217 22.5328 13.6186 24 13.6186C25.4672 13.6186 26.8689 14.217 27.8982 15.2734C28.9267 16.329 29.5 17.7552 29.5 19.2371V28.5435C29.5 29.1322 29.6715 29.6284 29.9234 29.9538C30.1593 30.2587 30.4738 30.433 30.8906 30.433C31.2832 30.433 31.501 30.2838 31.6663 30.0261C31.8656 29.7152 32 29.2052 32 28.5435V18.2349C32.0001 14.1227 28.153 11 24 11C19.847 11 15.9999 14.1227 16 18.2349V30.7835C16 31.8471 16.1585 32.9068 16.4653 33.7945C16.7767 34.6954 17.2081 35.3288 17.6876 35.6687C18.1382 35.9881 18.2446 36.6122 17.9252 37.0628C17.6058 37.5134 16.9817 37.6198 16.5311 37.3004C15.5853 36.63 14.962 35.5675 14.575 34.4478C14.1835 33.3149 14 32.0291 14 30.7835V18.2349Z" fill="black"/>
<path fill-rule="evenodd" clip-rule="evenodd" d="M24 18C24.5523 18 25 18.4477 25 19V28.7871C25 31.0447 25.548 32.5528 26.4676 33.5003C27.3818 34.4424 28.8285 35 31 35C31.5523 35 32 35.4477 32 36C32 36.5523 31.5523 37 31 37C28.5048 37 26.4515 36.3555 25.0324 34.8932C23.6187 33.4365 23 31.3382 23 28.7871V19C23 18.4477 23.4477 18 24 18Z" fill="black"/>
</svg>

<svg
  xmlns="http://www.w3.org/2000/svg"
  width="24"
  height="24"
  viewBox="0 0 24 24"
  fill="none"
  stroke="currentColor"
  stroke-width="2"
  stroke-linecap="round"
  stroke-linejoin="round"
>
  <path
    fill-rule="evenodd"
    d="M24 6c-2 0-3.882.488-5.538 1.351a1 1 0 0 1-.924-1.773A13.94 13.94 0 0 1 24 4c3.086 0 5.942 1 8.257 2.693a1 1 0 1 1-1.181 1.614A11.94 11.94 0 0 0 24 6m9.632 3.212a1 1 0 0 1 1.404.172 14 14 0 0 1 2.425 4.758 1 1 0 0 1-1.922.55 12 12 0 0 0-2.08-4.076 1 1 0 0 1 .173-1.404m-19.674.472a1 1 0 0 1 .239 1.394A11.94 11.94 0 0 0 12 18v12a1 1 0 1 1-2 0V18c0-3.007.95-5.795 2.564-8.078a1 1 0 0 1 1.394-.238M37 17a1 1 0 0 1 1 1v12a13.95 13.95 0 0 1-3.231 8.947 1 1 0 0 1-1.538-1.28A11.95 11.95 0 0 0 36 30V18.001a1 1 0 0 1 1-1M12.902 36.847a1 1 0 0 1 1.398.219 12.03 12.03 0 0 0 5.79 4.283A12 12 0 0 0 24 42a1 1 0 1 1 0 2c-1.595 0-3.13-.267-4.562-.76a14.03 14.03 0 0 1-6.754-4.995 1 1 0 0 1 .218-1.398m18.875 3.62a1 1 0 0 1-.312 1.379 13.9 13.9 0 0 1-4.235 1.78 1 1 0 0 1-.46-1.947 12 12 0 0 0 3.628-1.525 1 1 0 0 1 1.379.312"
    clip-rule="evenodd"
  />
  <path
    fill-rule="evenodd"
    d="M14 18.235C14 12.765 19.014 9 24 9s10 3.765 10 9.235v10.309c0 .878-.17 1.813-.65 2.562-.514.802-1.351 1.327-2.46 1.327-1.083 0-1.964-.5-2.548-1.255-.569-.734-.842-1.683-.842-2.634v-9.307a3.68 3.68 0 0 0-1.034-2.568A3.44 3.44 0 0 0 24 15.62c-.92 0-1.807.374-2.466 1.05a3.68 3.68 0 0 0-1.034 2.568v11.616c0 2.67 1.336 5.14 4.328 6.205a1 1 0 0 1-.671 1.884c-3.9-1.388-5.657-4.696-5.657-8.09V19.238a5.68 5.68 0 0 1 1.602-3.964A5.44 5.44 0 0 1 24 13.62c1.467 0 2.869.598 3.898 1.654a5.68 5.68 0 0 1 1.602 3.964v9.307c0 .588.172 1.084.423 1.41.236.305.55.479.968.479.392 0 .61-.15.775-.407.2-.31.334-.82.334-1.482v-10.31C32 14.124 28.153 11 24 11s-8 3.123-8 7.235v12.549c0 1.063.159 2.123.465 3.01.312.901.743 1.535 1.223 1.875A1 1 0 1 1 16.53 37.3c-.946-.67-1.569-1.732-1.956-2.852-.391-1.133-.575-2.419-.575-3.665z"
    clip-rule="evenodd"
  />
  <path
    fill-rule="evenodd"
    d="M24 18a1 1 0 0 1 1 1v9.787c0 2.258.548 3.766 1.468 4.713.914.942 2.36 1.5 4.532 1.5a1 1 0 1 1 0 2c-2.495 0-4.549-.645-5.968-2.107C23.62 33.437 23 31.338 23 28.787V19a1 1 0 0 1 1-1"
    clip-rule="evenodd"
  />
</svg>
